X: 4
T: Strayaway Child / Mason's Apron  v.1
P: piffero primo a0729
O: arr Greg Rice
%R: jig, reel
F: http://ancients.sudburymuster.org/mus/ssp/pdf/shadydealF.pdf
Z: 2019 John Chambers <jc:trillian.mit.edu>
M: 6/8
L: 1/8
K: Am
%%partsspace    5pt
"^The Strayaway Child"d |:\
eAA cAA | eAAc2d | eAA cAA | BGB d3 |\
eAA cAA | eAA c2d | e2e e2d | cAG A3 :|
|:\
eaa ege | gec dcd | eaa egg | gec d3 |\
eaa ege | gec dcd | eee e2d |[1 cAG A3 :|\
[2 cAG A3- |] A3 B2 |
[K:A][M:2/4][L:1/16]\
|:"^The Mason's Apron"\
cA (3AAA ABAF | EFAc dcBA | dB (3BBB BcBA | Bcde fefg |\
aA (3AAA ABAF |
EFAc dcBA | Bcde fefa |\
[1 (3AAA cB A2 ed :|[2 (3AAA cB A2 |: B2 |\
cAeA fAeA | cAeA fedc |
dBfB bBfB | defg afed |\
(3cBA eA fAeA | EFAc dcBA | Bcde fefa | (3AAA cB A2 :|


